!!!OTL: 165. Die arme Spinnerin.
!!!ODT: 1875
!!!ARE: Europa, Mitteleuropa, Deutschland, Fulda
!!!SCT: B0165A
!!!TXL: @@DE
!!!YEM: Copyright 1995, estate of Helmut Schaffrath.
**kern	**text
*ICvox	*
*Ivox	*
*M6/8	*
*clefG2	*
*k[f#]	*
*G:	*
{8d	B._Jm
=1	=1
4g	Schat-
8g	-ten
8gL	grü-
8f#J	.
8g	-ner
=2	=2
(4b/	Bäu-
8a)	.
4g}	-me
{8d	iſt
=3	=3
4a	mir
8a	ſo
4a	wohl
8b	ich
=4	=4
(4cc	träu-
8b)	.
4a}	-me
{8dd	Ʒu-
=5	=5
4dd	-frie-
8f#	-den-
8gL	-heit
8aJ	.
8b	und
=6	=6
4.a	Ruh.
4r}	.
{8dd	Ʒu-
=7	=7
4dd	-frie-
8f#	-den-
8gL	-heit
8aJ	.
8b	und
=8	=8
4.a	Ruh.
4r}	.
{8a	Jch
=9	=9
4a	tauſch
8dd	mit
4a	kei-
8g	-nem
=10	=10
8g	Kö-
8f#	-nig,
8r	.
4r}	.
{8a	denn
=11	=11
4a	Al-
8dd	-les
4a	gilt
8g	mir
=12	=12
8f#	we-
8a	-nig:
8r	.
4r}	.
{8d	Ʒu-
=13	=13
4g	-frie-
8g	-den-
8gL	-heit
8f#J	.
8g	und
=14	=14
(4.b/	Ruh,
4g)}	.
{8g	Ʒu-
=15	=15
8a/L	-frie-
8ccJ	.
8b/	-den-
8aL	-heit
8gJ	.
8f#	und
=16	=16
[4.g	Ruh!
8g]	.
8r}	.
==	==
!!!AGN: Ballade, Romanze
!!!GTL: Balladen und Romanzen
!!!ONB: ESAC (Essen Associative Code) Database: BOEHME
!!!AMT: compound duple
!!!AIN: vox
!!!EED: Helmut Schaffrath
!!!EEV: 1.0
!!B. Aus dem Fuldaiſchen. 1875.
!!@@COMMENT:"Aus dem Fuldaiſchen nur die erſte Strophe mit Mel. durch B. Widmann. Aus Battenhauſen
!!in der Wetterau die 4 Strophen durch Köhler 1892. "
!!@@END:
!!!URL-scan: https://archive.org/details/BoehmeVtLieder1895/page/n163/mode/2up
!!!ENC: Anna Maria Matuszewska
!!!EEV: 2024/19/06
*-	*-
